assets/icons/arrow_up.svg

<svg width="25" height="25" viewBox="0 0 25 25" fill="none" xmlns="http://www.w3.org/2000/svg">
<g id="arrow_up">
<path id="iconDefault" fill-rule="evenodd" clip-rule="evenodd" d="M12.5 22.2916C12.8452 22.2916 13.125 22.0118 13.125 21.6666V4.72507L19.5848 10.4671C19.8428 10.6964 20.2378 10.6732 20.4671 10.4152C20.6965 10.1572 20.6732 9.76215 20.4152 9.53283L12.9152 2.86616C12.6784 2.65567 12.3216 2.65567 12.0848 2.86616L4.58478 9.53283C4.32679 9.76215 4.30355 10.1572 4.53288 10.4152C4.7622 10.6732 5.15724 10.6964 5.41523 10.4671L11.875 4.72507V21.6666C11.875 22.0118 12.1548 22.2916 12.5 22.2916Z" fill="#18303F"/>
</g>
</svg>

<svg width="25" height="25" viewBox="0 0 25 25" fill="none"><g id="arrow_up"><path id="iconDefault" fill-rule="evenodd" clip-rule="evenodd" d="M12.5 22.292c.345 0 .625-.28.625-.625V4.725l6.46 5.742a.625.625 0 1 0 .83-.934l-7.5-6.667a.625.625 0 0 0-.83 0l-7.5 6.667a.625.625 0 0 0 .83.934l6.46-5.742v16.942c0 .345.28.625.625.625Z" fill="#18303F"/></g></svg>
